X: 1
T: The Road To The Isles
C: John McLellan
R: March
M: 4/4
L: 1/8
K: D
|:Ad|f3g afef|dedc B2dc|BGBc defa|e6 Ad|
f3g afef|dedc B2g2|fafd Acec|d6:|
|:fg|aAAA fAAA|dedc B2dc|BGBc defa|e6fg|
aAAA fAAA|dedc B2g2|fafd Acec|d6:|
